src/pos-icons/post.svg

<svg height="24" viewBox="0 0 24 24" width="24" xmlns="http://www.w3.org/2000/svg"><path d="m3 3v18h18v-18zm15 15h-12v-1h12zm0-2h-12v-1h12zm0-4h-12v-6h12z"/></svg>

<?xml version="1.0" encoding="UTF-8"?><!DOCTYPE svg PUBLIC "-//W3C//DTD SVG 1.1//EN" "http://www.w3.org/Graphics/SVG/1.1/DTD/svg11.dtd"><svg xmlns="http://www.w3.org/2000/svg" xmlns:xlink="http://www.w3.org/1999/xlink" version="1.1" id="mdi-post" width="24" height="24" viewBox="0 0 24 24"><path d="M3 3V21H21V3H3M18 18H6V17H18V18M18 16H6V15H18V16M18 12H6V6H18V12Z" /></svg>
